X:31
T: Ritter und Magd
N: Q0055d
O: Mitteleuropa, Deutschland (DDR) , Sachsen - Anhalt
R: Ballade, Betrug, Schwangerschaft, Tod, Selbstmord, Herr und Magd
M: 4/4
L: 1/8
K: G
D2 | G2G2G2FE | E2D2D2
D2 | D3GB3A | A2G2z2
D2 | G2G2G2FE | E2D2D2
D2 | D3GB3A | A2G2z2

